X: 30110
T: Old Beach Road
R: reel
M: 4/4
K: Aminor
|:AB|cAAG A2 AB|cedc BAGB|cABG AGED|EAAG A2 AB|
cAAG A2 AB|cedc BAGB|cABG AGED|EAAG A2:|
|:a3f geaf|geaf ge d2|a3f geag|e2 dB BA A2|
a3f geaf|geaf gedB|ABcd eaag|e2 dB BA A2:|

